icon_installer/data/icons/scalable/actions/show-note-symbolic.svg

<?xml version="1.0" encoding="UTF-8"?>
<svg height="16px" viewBox="0 0 16 16" width="16px" xmlns="http://www.w3.org/2000/svg">
    <path d="m 3.121094 2 c -1.175782 0 -2.121094 0.945312 -2.121094 2.121094 v 6.757812 c 0 1.175782 0.945312 2.121094 2.121094 2.121094 h 5.878906 l 4 3 v -3.011719 c 1.117188 -0.0625 2 -0.976562 2 -2.109375 v -6.757812 c 0 -1.175782 -0.945312 -2.121094 -2.121094 -2.121094 z m -0.121094 3 h 10 v 1 h -10 z m 0 2 h 10 v 1 h -10 z m 0 2 h 10 v 1 h -10 z m 0 0" fill="#222222"/>
</svg>

<svg xmlns="http://www.w3.org/2000/svg" width="16" height="16"><path fill="#222" d="M3.121 2A2.116 2.116 0 0 0 1 4.121v6.758C1 12.055 1.945 13 3.121 13H9l4 3v-3.012a2.11 2.11 0 0 0 2-2.11V4.122A2.116 2.116 0 0 0 12.879 2zM3 5h10v1H3zm0 2h10v1H3zm0 2h10v1H3zm0 0"/></svg>
